!!!OTL: Gestern Abend in der stillen Ruh hoert ich im Walde einer Amsel zu
!!!ARE: Europa, Mitteleuropa, Deutschland, Untermainfranken, Spessart
!!!SCT: D0176
!!!YEM: Copyright 1995, estate of Helmut Schaffrath.
**kern
*ICvox
*Ivox
!! Mixed meters:  2/4; 3/4
*M3/4
*k[b-]
*F:
=1
{8f
8g
=2
4a
4a
=3
8a
8b-
8cc
8dd
=4
4cc
8b-}
{8a
8g
8a
=5
8.b-
16b-
8b-
8dd
8cc
8b-
=6
*M2/4
4b-
4a}
=7
{8f
8g
=8
4a
4a
=9
*M3/4
8a
8b-
8cc
8dd
4cc
=10
*M2/4
8b-}
{8a
8g
8a
=11
*M3/4
8.b-
16b-
8b-
8dd
8cc
8b-
=12
*M2/4
4b-
4a}
=13
{16cc
16cc
16cc
16dd
=14
*M3/4
4.cc
8b-
4b-
=15
*M2/4
8r
8b-
8b-
8dd
=16
8.dd
16cc
4cc}
=17
{16cc
16cc
16cc
16dd
=18
*M3/4
4.cc
8b-
4b-
=19
*M2/4
8r
8b-
8b-
8dd
=20
8.dd
16cc
4cc}
=21
{8f
8g
=22
4a
4a
=23
8a
8b-
8cc
8dd
=24
*M3/4
8cc
8cc
8b-}
{8g
8.cc
16b-
=25
4b-
4a
4r}
==
!!!AGN: Liebes - Lied
!! dritte und fuenfte Zeile rhythmisch korrigiert; Inzipit = Variante
!!!ONB: ESAC (Essen Associative Code) Database: DVA
!!!AMT: irregular
!!!AIN: vox
!!!EED: Helmut Schaffrath
!!!EEV: 1.0
*-
